X:1
T:Anonymus 1556
%%score [ 1 2 3 4 ]
L:1/8
Q:1/4=200
M:4/4
K:C
V:1 treble nm="Soprano"
V:2 treble nm="Contralto"
V:3 treble nm="Tenor"
V:4 treble nm="Bajo"
V:1
"^;""^Q""^Q" x8 ||[K:F]"^¿Con qué la lavare?" z16 | z16 x2 | z8 D8 x2 | F6 F2 G4 G4 | %5
w: |||¿Con|qué la la- va-|
w: |||||
w: |||Lá-|vo- me yo cui-|
[M:4/2] A8 z4 A4 | d8 d4 c8 | A4 B8 A16 | z4 A4 c4 c4 | A4 A4 F8 | z4 D4 F8 | F4 G8 F4 | E8 D8 x4 | %13
w: re, La|flor de la|mi ca- ra?||la- va- re|Que bi-|vo mal pe-|na- da?|
w: |||¿Con qué la|||||
w: tada con|pe- nas y|do- lo- res||||||
 z8 z4 A4 x12 | c4 c4 A4 A4 | F8 z4 D4 x2 | F8 F4 G8 | F4 E8"^-" x16 x2!fine! |] z16 x12 | z16 | %20
w: ¿Con|qué la la- va-|re que|bi- vo mal|pe- na-|||
w: |||||||
w: |||||||
 z16 | D8 F6 F2 x4 | G4 G4 A8 | A8 z4 A4 x4 | c6 B2 A4 G8 | F4 E4 D8 | ^C4"^-" x8 x4 || x16 |] %28
w: |Lá- van- se|las ca- sa-|das con|a- * gua de|li- mo- *|||
w: ||||||||
w: ||||||||
V:2
"^Q""^;" x8 ||[K:F] z16 | z16 x2 | A,8 B,6 B,2 x2 | C4 C4 (D4 D4) |[M:4/2] z4 F4 F4 E4 | %6
w: |||¿Con qué la|la- va- ré *|la flor de|
w: ||||||
w: |||Lá- vo- me|yo cui- ta- da|con pe- nas|
 D6 E2 F2 G2 A4 x4 | G2 F2 F8 E4 x12 | F8 E8 | z8 z4 E4 | F4 F4 D4 D4 | C4 F6 E2 D2 C2 | %12
w: la * * * *|* * * mi|ca- ra?||qué la la- va-|re que * * *|
w: |||¿Con|||
w: y * * * *|* * * do-|lo- res.||||
 D2 C2 E6 D2 D8 | ^C4 D8 z16 | z4 E4 F4 F4 | D4 D4 C4 F6 | E2 D2 C2 D4 E6 x4 | D2 D8 ^C4"^-" x16 |] %18
w: bi- vo mal pe- na-|* da?|¿Con qué la|la- va- re que|* * bi- vo mal|pe- na- *|
w: ||||||
w: ||||||
 z8 A,8 x12 | B,6 B,2 C4 C4 | D4 F6 E2 D2 C2 | B,6 A,G, A,4 F8 | E4 F8 z4 | C4 D4 F4 x8 | %24
w: Lá-|van- se las ca-|sa- * * * *||* das|con a- gua|
w: ||||||
w: ||||||
 E4 C6 D2 E4 x4 | C4 D4 B,8 |"^-" x8- x8 || x16 |] %28
w: de li- * *|mo- * *|nes.||
w: ||||
w: ||||
V:3
"^Q""^;" x8 ||[K:F][K:treble-8] z16 | z8 D8 x2 | F6 F2 G4 G4 x2 | A4 F4 B6 B2 | %5
w: ||¿Con|qué la la- va-|ré, con qué la|
w: |||||
w: ||Lá-|vo- me yo cui-|tada, lá- vo- me|
[M:4/2][K:treble-8] A4 d4 d4 c4 | f8 d4 e6 x2 | c2 c8 B4 c4 x10 | A4 c4 c4 A4 | A4 F4 c4 x4 | %10
w: la- va- re la|flor de la|mi ca- * ra?|||
w: |||¿Con qué la la-|va- re que|
w: yo cui- tada con-|pe- nas y|do- lo- * res.|||
 c4 A4 B6 B2 | A4 B4 F4 B4 | A4 c6 B2 A2 G2 x4 | A8 z4 A4 x12 | c4 c4 A4 A4 | F4 c4 c4 A4 x2 | %16
w: bi- vo mal pe-|na- * da, mal|pe- na * * *|da? ¿Con|qué la la- va-|re que bi- vo|
w: ||||||
w: ||||||
 B6 B2 A4 B4 x4 | F4 B4 A4 c8 x10 |] A4 A8"^-" x16 | z16 | z16 | D8 F6 F2 x4 | G4 G4 A4 B4 | %23
w: mal pe- na- da,|que bi- vo mal|pe- na-|||Lá- van- se|las ca- sa- *|
w: |||||||
w: |||||||
 G8 F4 A8 | A4 F8 x8 | G4 A6 G2 E2 F2 | G4 A4 G8 || E8"^-" x8 |] %28
w: * das con|a- gua|de li- * * *|* * mo-||
w: |||||
w: |||||
V:4
"^E""^Q""^Q""^;" x8 ||[K:F][K:bass] D,8 F,6 F,2 | G,4 G,4 A,4 F,6 | %3
w: |¿Con qué la|la- va- ré, la-|
w: |||
w: |Lá- vo- me|yo cui- ta- *|
 E,2 D,2 C,2 B,,2 A,,2 B,,4 A,,4 | A,6 G,2 G,4 x4 |[M:4/2] F,4 D,4 A,8 | z4 B,4 B,4 A,2 B,2 x4 | %7
w: * * * * * va- ré,|con qué la|la- va- re,|la flor de *|
w: ||||
w: * * * * * * da.|yo cui- ta-|* * da.|con pe- nas *|
 C4 F,4 G,8 x12 | F,8 z4 A,4 | C4 C4 A,4 A,4 | F,8 B,,2 C,2 D,2 E,2 | F,4 B,,8 B,,4 | %12
w: la mi ca-|ra? *||re que * * *|* bi- vo|
w: |* ¿Con|qué la la- va-|||
w: y do- lo-|res. *||||
 D,4 C,8 D,4 x4 | A,,8 D,8 x12 | z4 A,4 C4 C4 | A,4 A,4 F,8 x2 | B,,2 C,2 D,2 E,2 F,4 B,,8 | %17
w: mal pe- na-|* da?|¿Con qué la|la- va- re|que * * * * bi-|
w: |||||
w: |||||
 B,,4 D,4 C,8 x14 |] D,4 A,,8"^-" x16 | D,8 F,6 F,2 | G,4 G,4 A,8 | A,8 D,8 x4 | z16 | z8 D,8 x4 | %24
w: vo mal pe-|na- *|Lá- van- se|las ca- sa-|das *||con|
w: |||||||
w: |||||||
 F,6 E,2 D,6 D,2 x4 | C,4 A,,6 B,,2 C,2 D,2 | E,4 D,4 G,,8 || A,,8"^-" x8 |] %28
w: a- gua~ ~de li-|mo- * * * *|nes, li- mo-||
w: ||||
w: ||||

